src/assets/icons/logo-horizontal-light.svg

<svg width="248" height="50" viewBox="0 0 248 50" fill="none" xmlns="http://www.w3.org/2000/svg">
    <path d="M239.133 18.6992H189.348V42.7227H239.133V18.6992Z" fill="#FBB03B"/>
    <path d="M35.9883 33.0547V38.7383H32.668V22.6055H38.9766C40.1875 22.6055 41.2617 22.8203 42.1797 23.2695C43.0977 23.7188 43.8008 24.3437 44.3086 25.1641C44.7969 25.9844 45.0508 26.9023 45.0508 27.957C45.0508 29.5391 44.5039 30.7891 43.4297 31.707C42.3555 32.625 40.8516 33.0742 38.9375 33.0742H35.9883V33.0547ZM35.9883 30.3594H38.957C39.8359 30.3594 40.5 30.1445 40.9688 29.7344C41.4375 29.3242 41.6523 28.7383 41.6523 27.957C41.6523 27.1758 41.418 26.5312 40.9492 26.043C40.4805 25.5547 39.8359 25.3008 39.0156 25.2813H35.9687V30.3594H35.9883Z" fill="white"/>
    <path d="M53.2344 29.7539C52.8047 29.6953 52.4141 29.6562 52.082 29.6562C50.8711 29.6562 50.0703 30.0664 49.6992 30.8867V38.7383H46.4961V26.7461H49.5234L49.6211 28.1719C50.2656 27.0781 51.1641 26.5117 52.2969 26.5117C52.6484 26.5117 52.9805 26.5508 53.293 26.6484L53.2344 29.7539Z" fill="white"/>
    <path d="M53.918 32.6445C53.918 31.4531 54.1523 30.3984 54.6016 29.4609C55.0508 28.5234 55.7148 27.8008 56.5742 27.293C57.4336 26.7852 58.4297 26.5312 59.582 26.5312C61.2031 26.5312 62.5313 27.0195 63.5469 28.0156C64.5625 29.0117 65.1484 30.3594 65.2656 32.0586L65.2852 32.8789C65.2852 34.7148 64.7773 36.1992 63.7422 37.3125C62.707 38.4258 61.3398 38.9727 59.6016 38.9727C57.8633 38.9727 56.4961 38.4258 55.4609 37.3125C54.4258 36.1992 53.918 34.6953 53.918 32.7813V32.6445V32.6445ZM57.1211 32.8594C57.1211 33.9922 57.3359 34.8711 57.7656 35.4766C58.1953 36.082 58.8008 36.375 59.6016 36.375C60.3828 36.375 60.9883 36.082 61.418 35.4766C61.8477 34.8711 62.0625 33.9336 62.0625 32.625C62.0625 31.5117 61.8477 30.6328 61.418 30.0273C60.9883 29.4219 60.3633 29.1094 59.582 29.1094C58.8008 29.1094 58.1953 29.4219 57.7656 30.0273C57.3359 30.6328 57.1211 31.5898 57.1211 32.8594Z" fill="white"/>
    <path d="M70.6953 23.7969V26.7461H72.7461V29.0899H70.6953V35.0859C70.6953 35.5352 70.7734 35.8477 70.9492 36.043C71.125 36.2383 71.4375 36.3359 71.9258 36.3359C72.2773 36.3359 72.5898 36.3164 72.8633 36.2578V38.6797C72.2383 38.875 71.5938 38.9727 70.9297 38.9727C68.6836 38.9727 67.5313 37.8399 67.4922 35.5742V29.1094H65.7344V26.7656H67.4922V23.8164H70.6953V23.7969Z" fill="white"/>
    <path d="M79.4453 38.9727C77.6875 38.9727 76.2617 38.4258 75.1484 37.3516C74.0352 36.2773 73.4883 34.832 73.4883 33.0352V32.7227C73.4883 31.5117 73.7227 30.4375 74.1914 29.4805C74.6602 28.5234 75.3242 27.8008 76.1641 27.293C77.0234 26.7852 78 26.5312 79.0937 26.5312C80.7344 26.5312 82.0234 27.0586 82.9609 28.0742C83.8984 29.1094 84.3672 30.5742 84.3672 32.4688V33.7774H76.7305C76.8281 34.5586 77.1406 35.1836 77.668 35.6719C78.1953 36.1406 78.8398 36.375 79.6406 36.375C80.8711 36.375 81.8477 35.9258 82.5312 35.0273L84.1133 36.7852C83.625 37.4688 82.9805 37.9961 82.1602 38.3672C81.3398 38.7774 80.4414 38.9727 79.4453 38.9727ZM79.0742 29.1094C78.4297 29.1094 77.9219 29.3242 77.5312 29.7539C77.1406 30.1836 76.8867 30.8086 76.7695 31.6094H81.2227V31.3555C81.2031 30.6328 81.0078 30.0859 80.6367 29.6953C80.2852 29.3047 79.7578 29.1094 79.0742 29.1094Z" fill="white"/>
    <path d="M90.9492 36.3945C91.5352 36.3945 92.0234 36.2383 92.3945 35.9062C92.7656 35.5742 92.9609 35.1445 92.9805 34.6172H95.9883C95.9883 35.4375 95.7539 36.1797 95.3242 36.8438C94.8945 37.5274 94.2891 38.0547 93.5273 38.4258C92.7656 38.7969 91.9258 38.9922 91.0078 38.9922C89.2891 38.9922 87.9414 38.4453 86.9453 37.3516C85.9492 36.2578 85.4609 34.7539 85.4609 32.8399V32.625C85.4609 30.7695 85.9492 29.3047 86.9453 28.1914C87.9219 27.0977 89.2695 26.5312 90.9883 26.5312C92.4922 26.5312 93.6836 26.9609 94.6016 27.8203C95.5 28.6797 95.9687 29.8125 95.9883 31.2383H92.9805C92.9609 30.6133 92.7656 30.1055 92.3945 29.7149C92.0234 29.3242 91.5352 29.1289 90.9297 29.1289C90.1875 29.1289 89.6211 29.4023 89.2305 29.9492C88.8398 30.4961 88.6641 31.375 88.6641 32.6055V32.9375C88.6641 34.168 88.8594 35.0664 89.2305 35.5938C89.6016 36.1211 90.168 36.3945 90.9492 36.3945Z" fill="white"/>
    <path d="M101.516 23.7969V26.7461H103.566V29.0899H101.516V35.0859C101.516 35.5352 101.594 35.8477 101.77 36.043C101.945 36.2383 102.258 36.3359 102.746 36.3359C103.098 36.3359 103.41 36.3164 103.684 36.2578V38.6797C103.059 38.875 102.414 38.9727 101.75 38.9727C99.5039 38.9727 98.3516 37.8399 98.3125 35.5742V29.1094H96.5547V26.7656H98.3125V23.8164H101.516V23.7969Z" fill="white"/>
    <path d="M123.449 22.6055V33.25C123.449 35.0078 122.902 36.4141 121.789 37.4492C120.676 38.4844 119.172 38.9922 117.258 38.9922C115.363 38.9922 113.879 38.4844 112.766 37.4883C111.652 36.4922 111.086 35.125 111.066 33.3672V22.6055H114.387V33.2695C114.387 34.3242 114.641 35.1055 115.148 35.5742C115.656 36.0625 116.359 36.2969 117.258 36.2969C119.133 36.2969 120.07 35.3203 120.109 33.3477V22.6055H123.449Z" fill="white"/>
    <path d="M130.109 33.9336L128.957 35.0859V38.7383H125.754V21.707H128.957V31.1406L129.582 30.3398L132.648 26.7266H136.496L132.16 31.7461L136.867 38.7383H133.176L130.109 33.9336Z" fill="white"/>
    <path d="M144.484 29.7539C144.055 29.6953 143.664 29.6562 143.332 29.6562C142.121 29.6562 141.32 30.0664 140.949 30.8867V38.7383H137.746V26.7461H140.773L140.871 28.1719C141.516 27.0781 142.414 26.5117 143.547 26.5117C143.898 26.5117 144.23 26.5508 144.543 26.6484L144.484 29.7539Z" fill="white"/>
    <path d="M152.688 38.7578C152.531 38.4649 152.434 38.1133 152.375 37.6836C151.594 38.543 150.598 38.9727 149.348 38.9727C148.176 38.9727 147.199 38.6406 146.418 37.957C145.637 37.2734 145.266 36.4141 145.266 35.3789C145.266 34.1094 145.734 33.1328 146.672 32.4492C147.609 31.7656 148.977 31.4336 150.754 31.4141H152.238V30.7305C152.238 30.1836 152.102 29.7344 151.809 29.4023C151.516 29.0703 151.066 28.8945 150.461 28.8945C149.914 28.8945 149.504 29.0313 149.191 29.2852C148.879 29.5391 148.723 29.8906 148.723 30.3594H145.52C145.52 29.6563 145.734 29.0117 146.164 28.4258C146.594 27.8398 147.199 27.3711 147.98 27.0391C148.762 26.707 149.641 26.5312 150.617 26.5312C152.102 26.5312 153.273 26.9023 154.133 27.6445C154.992 28.3867 155.441 29.4414 155.441 30.7695V35.9649C155.441 37.0977 155.617 37.957 155.91 38.543V38.7383H152.688V38.7578ZM150.051 36.5117C150.52 36.5117 150.969 36.4141 151.359 36.1992C151.75 35.9844 152.063 35.7109 152.238 35.3594V33.2891H151.047C149.445 33.2891 148.586 33.8359 148.488 34.9492L148.469 35.1445C148.469 35.5352 148.605 35.8672 148.898 36.1406C149.172 36.3945 149.562 36.5117 150.051 36.5117Z" fill="white"/>
    <path d="M157.453 23.6406C157.453 23.1523 157.609 22.7617 157.941 22.4492C158.273 22.1367 158.703 21.9805 159.25 21.9805C159.797 21.9805 160.227 22.1367 160.559 22.4492C160.891 22.7617 161.047 23.1523 161.047 23.6406C161.047 24.1289 160.891 24.5195 160.559 24.832C160.227 25.1445 159.797 25.3008 159.25 25.3008C158.703 25.3008 158.273 25.1445 157.941 24.832C157.609 24.5195 157.453 24.1289 157.453 23.6406ZM160.852 38.7578H157.629V26.7656H160.852V38.7578Z" fill="white"/>
    <path d="M166.086 26.7461L166.184 28.1328C167.043 27.0586 168.195 26.5312 169.641 26.5312C170.91 26.5312 171.867 26.9023 172.473 27.6445C173.078 28.3867 173.41 29.5 173.43 30.9844V38.7383H170.227V31.0625C170.227 30.3789 170.07 29.8906 169.777 29.5781C169.484 29.2656 168.996 29.1094 168.293 29.1094C167.395 29.1094 166.711 29.5 166.262 30.2617V38.7188H163.059V26.7266H166.086V26.7461Z" fill="white"/>
    <path d="M180.969 38.9727C179.211 38.9727 177.785 38.4258 176.672 37.3516C175.559 36.2773 175.012 34.832 175.012 33.0352V32.7227C175.012 31.5117 175.246 30.4375 175.715 29.4805C176.184 28.5234 176.848 27.8008 177.687 27.293C178.547 26.7852 179.523 26.5312 180.617 26.5312C182.258 26.5312 183.547 27.0586 184.484 28.0742C185.422 29.1094 185.891 30.5742 185.891 32.4688V33.7774H178.254C178.352 34.5586 178.664 35.1836 179.191 35.6719C179.719 36.1406 180.363 36.375 181.164 36.375C182.395 36.375 183.371 35.9258 184.055 35.0273L185.637 36.7852C185.148 37.4688 184.504 37.9961 183.684 38.3672C182.863 38.7774 181.965 38.9727 180.969 38.9727ZM180.598 29.1094C179.953 29.1094 179.445 29.3242 179.055 29.7539C178.664 30.1836 178.41 30.8086 178.293 31.6094H182.746V31.3555C182.727 30.6328 182.531 30.0859 182.16 29.6953C181.809 29.3047 181.281 29.1094 180.598 29.1094Z" fill="white"/>
    <path d="M206.711 38.7578H203.391L196.906 28.1328V38.7578H193.586V22.6055H196.906L203.391 33.25V22.6055H206.711V38.7578Z" fill="white"/>
    <path d="M208.645 32.6445C208.645 31.4531 208.879 30.3984 209.328 29.4609C209.777 28.5234 210.441 27.8008 211.301 27.293C212.16 26.7852 213.156 26.5312 214.309 26.5312C215.93 26.5312 217.258 27.0195 218.273 28.0156C219.289 29.0117 219.875 30.3594 219.992 32.0586L220.012 32.8789C220.012 34.7148 219.504 36.1992 218.469 37.3125C217.434 38.4258 216.066 38.9727 214.328 38.9727C212.59 38.9727 211.223 38.4258 210.188 37.3125C209.152 36.1992 208.645 34.6953 208.645 32.7813V32.6445V32.6445ZM211.848 32.8594C211.848 33.9922 212.063 34.8711 212.492 35.4766C212.922 36.082 213.527 36.375 214.328 36.375C215.109 36.375 215.715 36.082 216.145 35.4766C216.574 34.8711 216.809 33.9336 216.809 32.625C216.809 31.5117 216.594 30.6328 216.145 30.0273C215.715 29.4219 215.09 29.1094 214.309 29.1094C213.527 29.1094 212.922 29.4219 212.492 30.0273C212.063 30.6328 211.848 31.5898 211.848 32.8594Z" fill="white"/>
    <path d="M231.691 34.3828L233.273 26.7461H236.359L233.293 38.7383H230.617L228.352 31.1797L226.086 38.7383H223.41L220.344 26.7461H223.43L224.992 34.3828L227.18 26.7461H229.504L231.691 34.3828Z" fill="white"/>
    <path d="M26.1445 9.98829L25.9883 10.6328L25.8516 11.1602L22.5703 9.08984L19.3672 8.52344L16.1641 9.08984L12.8828 11.1602L12.7656 10.6328L12.6094 9.98829L15.7344 7.72265L19.3672 7L23.0195 7.72265L26.1445 9.98829Z" fill="#FBB03B"/>
    <path d="M30.7344 11.6875L30.4805 10.5547L30.5977 9.59766L27.6875 11.2383L26.4766 12.2734L25.793 12.9375L26.0078 12.0977L26.1055 11.6875L26.3398 10.8867L26.418 9.59766L25.9688 9.30469L25.5781 9.51953L25.4805 10.3984L25.2461 11.0625L25.4805 11.5508L25.4023 11.9414L24.1328 12.7617L22.5898 14.4414L22.3164 15.6523L20.7539 16.3945L20.7148 16.4336L20.1875 16.2187V15.5742L20.5781 14.6758L20.6367 13.3476L20.0313 12.5859L19.3672 12.4687L18.7031 12.5859L18.1172 13.3476L18.1758 14.6758L18.5469 15.5742V16.2187L18.0195 16.4336L18 16.3945L16.418 15.6523L16.1445 14.4414L14.6016 12.7617L13.3516 11.9414L13.2734 11.5508L13.5078 11.0625L13.2734 10.3984L13.1758 9.51953L12.7852 9.30469L12.3359 9.59766L12.3945 10.8867L12.6289 11.6875L12.707 11.9414L12.9414 12.9375L12.2578 12.3516L11.0469 11.2383L8.13672 9.59766L8.25391 10.5547L8 11.6875V12.0781L8.74219 12.4101L8.58594 13.1719L9.75781 14.1094L10.0898 15.1055L11.6523 15.9844L13.6641 20.0273L16.7891 23.2305L16.0273 25.4961L15.4023 34.6562L17.1992 38.7578H19.3672H21.5352L23.3516 34.6562L22.707 25.4961L21.9453 23.2305L25.0703 20.0273L27.082 15.9844L28.6641 15.1055L28.9961 14.1094L30.1484 13.1719L29.9922 12.4101L30.7344 12.0781V11.6875Z" fill="white"/>
</svg>

<svg width="248" height="50" fill="none" xmlns="http://www.w3.org/2000/svg"><path d="M239.133 18.7h-49.785v24.023h49.785V18.699z" fill="#FBB03B"/><path d="M35.988 33.055v5.683h-3.32V22.605h6.309c1.21 0 2.285.215 3.203.665.918.449 1.62 1.074 2.129 1.894.488.82.742 1.738.742 2.793 0 1.582-.547 2.832-1.621 3.75-1.075.918-2.578 1.367-4.492 1.367h-2.95v-.02zm0-2.696h2.969c.879 0 1.543-.215 2.012-.625.468-.41.683-.996.683-1.777 0-.781-.234-1.426-.703-1.914-.468-.488-1.113-.742-1.933-.762h-3.047v5.078h.02zM53.234 29.754a8.862 8.862 0 0 0-1.152-.098c-1.21 0-2.012.41-2.383 1.23v7.852h-3.203V26.746h3.027l.098 1.426c.645-1.094 1.543-1.66 2.676-1.66.351 0 .684.039.996.136l-.059 3.106zM53.918 32.645c0-1.192.234-2.247.684-3.184a4.943 4.943 0 0 1 1.972-2.168c.86-.508 1.856-.762 3.008-.762 1.621 0 2.95.489 3.965 1.485 1.016.996 1.601 2.343 1.719 4.043l.02.82c0 1.836-.509 3.32-1.544 4.434-1.035 1.113-2.402 1.66-4.14 1.66-1.739 0-3.106-.547-4.141-1.66-1.035-1.114-1.543-2.618-1.543-4.532v-.136zm3.203.214c0 1.133.215 2.012.645 2.618.43.605 1.035.898 1.836.898.78 0 1.386-.293 1.816-.898.43-.606.645-1.543.645-2.852 0-1.113-.215-1.992-.645-2.598-.43-.605-1.055-.918-1.836-.918-.781 0-1.387.313-1.816.918-.43.606-.645 1.563-.645 2.832zM70.695 23.797v2.95h2.051v2.343h-2.05v5.996c0 .45.077.762.253.957.176.195.489.293.977.293.351 0 .664-.02.937-.078v2.422a6.445 6.445 0 0 1-1.933.293c-2.246 0-3.399-1.133-3.438-3.399V29.11h-1.758v-2.343h1.758v-2.95h3.203v-.02zM79.445 38.973c-1.757 0-3.183-.547-4.297-1.621-1.113-1.075-1.66-2.52-1.66-4.317v-.312c0-1.211.235-2.285.703-3.242.47-.958 1.133-1.68 1.973-2.188.86-.508 1.836-.762 2.93-.762 1.64 0 2.93.528 3.867 1.543.937 1.035 1.406 2.5 1.406 4.395v1.308h-7.636c.097.782.41 1.407.937 1.895.527.469 1.172.703 1.973.703 1.23 0 2.207-.45 2.89-1.348l1.582 1.758a4.744 4.744 0 0 1-1.953 1.582c-.82.41-1.719.606-2.715.606zm-.37-9.864c-.645 0-1.153.215-1.544.645-.39.43-.644 1.055-.762 1.855h4.454v-.254c-.02-.722-.215-1.27-.586-1.66-.352-.39-.88-.586-1.563-.586zM90.95 36.395c.585 0 1.073-.157 1.444-.489.372-.332.567-.761.587-1.289h3.007c0 .82-.234 1.563-.664 2.227-.43.683-1.035 1.21-1.797 1.582a5.68 5.68 0 0 1-2.52.566c-1.718 0-3.066-.547-4.062-1.64-.996-1.094-1.484-2.598-1.484-4.512v-.215c0-1.855.488-3.32 1.484-4.434.977-1.093 2.325-1.66 4.043-1.66 1.504 0 2.696.43 3.614 1.29.898.859 1.367 1.991 1.386 3.417h-3.007c-.02-.625-.215-1.133-.587-1.523-.37-.39-.859-.586-1.464-.586-.743 0-1.309.273-1.7.82-.39.547-.566 1.426-.566 2.656v.333c0 1.23.195 2.128.567 2.656.37.527.937.8 1.718.8zM101.516 23.797v2.95h2.05v2.343h-2.05v5.996c0 .45.078.762.254.957.175.195.488.293.976.293.352 0 .664-.02.938-.078v2.422a6.448 6.448 0 0 1-1.934.293c-2.246 0-3.398-1.133-3.438-3.399V29.11h-1.757v-2.343h1.757v-2.95h3.204v-.02zM123.449 22.605V33.25c0 1.758-.547 3.164-1.66 4.2-1.113 1.034-2.617 1.542-4.531 1.542-1.895 0-3.379-.508-4.492-1.504-1.114-.996-1.68-2.363-1.7-4.12V22.604h3.321V33.27c0 1.054.254 1.835.761 2.304.508.489 1.211.723 2.11.723 1.875 0 2.812-.977 2.851-2.95V22.606h3.34zM130.109 33.934l-1.152 1.152v3.652h-3.203V21.707h3.203v9.434l.625-.801 3.066-3.613h3.848l-4.336 5.02 4.707 6.991h-3.691l-3.067-4.804zM144.484 29.754a8.848 8.848 0 0 0-1.152-.098c-1.211 0-2.012.41-2.383 1.23v7.852h-3.203V26.746h3.027l.098 1.426c.645-1.094 1.543-1.66 2.676-1.66.351 0 .683.039.996.136l-.059 3.106zM152.688 38.758c-.157-.293-.254-.645-.313-1.074-.781.859-1.777 1.289-3.027 1.289-1.172 0-2.149-.332-2.93-1.016-.781-.684-1.152-1.543-1.152-2.578 0-1.27.468-2.246 1.406-2.93.937-.683 2.305-1.015 4.082-1.035h1.484v-.684c0-.546-.136-.996-.429-1.328-.293-.332-.743-.508-1.348-.508-.547 0-.957.137-1.27.391-.312.254-.468.606-.468 1.074h-3.203c0-.703.214-1.347.644-1.933.43-.586 1.035-1.055 1.816-1.387.782-.332 1.661-.508 2.637-.508 1.485 0 2.656.371 3.516 1.114.859.742 1.308 1.796 1.308 3.125v5.195c0 1.133.176 1.992.469 2.578v.195h-3.222v.02zm-2.637-2.246c.469 0 .918-.098 1.308-.313.391-.215.704-.488.879-.84v-2.07h-1.191c-1.602 0-2.461.547-2.559 1.66l-.019.196c0 .39.136.722.429.996.274.254.664.37 1.153.37zM157.453 23.64c0-.488.156-.878.488-1.19.332-.313.762-.47 1.309-.47.547 0 .977.157 1.309.47.332.312.488.702.488 1.19 0 .489-.156.88-.488 1.192-.332.313-.762.469-1.309.469-.547 0-.977-.156-1.309-.469-.332-.313-.488-.703-.488-1.191zm3.399 15.118h-3.223V26.766h3.223v11.992zM166.086 26.746l.098 1.387c.859-1.074 2.011-1.602 3.457-1.602 1.269 0 2.226.371 2.832 1.114.605.742.937 1.855.957 3.34v7.753h-3.203v-7.675c0-.684-.157-1.172-.45-1.485-.293-.312-.781-.469-1.484-.469-.898 0-1.582.391-2.031 1.153v8.457h-3.203V26.727h3.027v.02zM180.969 38.973c-1.758 0-3.184-.547-4.297-1.621-1.113-1.075-1.66-2.52-1.66-4.317v-.312c0-1.211.234-2.285.703-3.242.469-.958 1.133-1.68 1.972-2.188.86-.508 1.836-.762 2.93-.762 1.641 0 2.93.528 3.867 1.543.938 1.035 1.407 2.5 1.407 4.395v1.308h-7.637c.098.782.41 1.407.937 1.895.528.469 1.172.703 1.973.703 1.231 0 2.207-.45 2.891-1.348l1.582 1.758a4.75 4.75 0 0 1-1.953 1.582c-.821.41-1.719.606-2.715.606zm-.371-9.864c-.645 0-1.153.215-1.543.645-.391.43-.645 1.055-.762 1.855h4.453v-.254c-.019-.722-.215-1.27-.586-1.66-.351-.39-.879-.586-1.562-.586zM206.711 38.758h-3.32l-6.485-10.625v10.625h-3.32V22.605h3.32l6.485 10.645V22.605h3.32v16.153zM208.645 32.645c0-1.192.234-2.247.683-3.184a4.94 4.94 0 0 1 1.973-2.168c.859-.508 1.855-.762 3.008-.762 1.621 0 2.949.489 3.964 1.485 1.016.996 1.602 2.343 1.719 4.043l.02.82c0 1.836-.508 3.32-1.543 4.434-1.035 1.113-2.403 1.66-4.141 1.66s-3.105-.547-4.14-1.66c-1.036-1.114-1.543-2.618-1.543-4.532v-.136zm3.203.214c0 1.133.215 2.012.644 2.618.43.605 1.035.898 1.836.898.781 0 1.387-.293 1.817-.898.429-.606.664-1.543.664-2.852 0-1.113-.215-1.992-.664-2.598-.43-.605-1.055-.918-1.836-.918-.782 0-1.387.313-1.817.918-.429.606-.644 1.563-.644 2.832zM231.691 34.383l1.582-7.637h3.086l-3.066 11.992h-2.676l-2.265-7.558-2.266 7.558h-2.676l-3.066-11.992h3.086l1.562 7.637 2.188-7.637h2.324l2.187 7.637z" fill="#fff"/><path d="m26.145 9.988-.157.645-.136.527-3.282-2.07-3.203-.567-3.203.567-3.281 2.07-.117-.527-.157-.645 3.125-2.265L19.367 7l3.652.723 3.126 2.265z" fill="#FBB03B"/><path d="m30.734 11.688-.254-1.133.118-.957-2.91 1.64-1.211 1.035-.684.665.215-.84.098-.41.234-.801.078-1.29-.45-.292-.39.215-.098.878-.234.665.235.488-.079.39-1.27.82-1.542 1.68-.274 1.211-1.562.743-.04.039-.526-.215v-.645l.39-.898.059-1.328-.606-.762-.664-.117-.664.117-.586.762.059 1.328.37.898v.645l-.526.215-.02-.04-1.582-.742-.273-1.21-1.543-1.68-1.25-.82-.079-.391.235-.489-.235-.664-.097-.878-.39-.215-.45.293.059 1.289.234.8.078.254.234.996-.683-.585-1.211-1.114-2.91-1.64.117.957L8 11.688v.39l.742.332-.156.762 1.172.937.332.996 1.562.88 2.012 4.042 3.125 3.203-.762 2.266-.625 9.16 1.797 4.102h4.336l1.817-4.102-.645-9.16-.762-2.265 3.125-3.204 2.012-4.043 1.582-.879.332-.996 1.152-.937-.156-.762.742-.332v-.39z" fill="#fff"/></svg>
